X:1018
T:Anne Fraser MacKenzie
R:Jig
C:Trad.
O:Scotland
Z:Paul Hardy's Session Tunebook 2015 (see www.paulhardy.net). Creative Commons cc by-nc-sa licenced.
M:6/8
L:1/8
Q:3/8=100
K:G
D|"G"G2G "D"FGA|"G"G2G "D"AFD|"G"B2B "D"ABc|"G"dcB "D"AGF|
"G"G2G "D"FGA|"G"B2B cBc|"D"dcA DEF|"G"G3- G2:|
|:B/c/|"G"d2B gfg|"C"e2c ABc|"G"B2G d2B|"D"ABc def|
"Em"g2g "D"f2e|"G"dcB "Am"cBc|"G"dcA "D"DEF|"G"G3-G2:|

